src/main/resources/icons/JavaUltimateIcons/icons/cdi/gutter/beanMethod.svg

<svg xmlns="http://www.w3.org/2000/svg" width="12" height="12" viewBox="0 0 12 12">
  <g fill="none" fill-rule="evenodd">
    <path fill="#F98B9E" fill-opacity=".6" d="M12.0003995,8.50056 C12.0003995,10.43356 10.4334,11.99956 8.50039952,11.99956 C6.5664,11.99956 4.9994,10.43256 5.00039952,8.49956 C5.00039952,6.56656 6.5664,4.99956 8.50039952,4.99956 C10.4334,5.00056 12.0003995,6.56656 12.0003995,8.50056"/>
    <path fill="#231F20" fill-opacity=".7" d="M10.9965,8.26716 C10.9955,7.81216 10.8995,7.48116 10.7085,7.27316 C10.5175,7.06616 10.2325,6.96216 9.8545,6.96216 C9.8345,6.96216 9.8145,6.96816 9.7945,6.96916 C9.7635,6.96816 9.7345,6.96216 9.7025,6.96216 C9.5945,6.96216 9.4885,6.97416 9.3855,6.99816 C9.2815,7.02216 9.1835,7.05816 9.0895,7.10716 C8.9955,7.15616 8.9095,7.21716 8.8305,7.29116 C8.7795,7.33816 8.7415,7.40216 8.7005,7.46116 C8.6195,7.30916 8.5165,7.18416 8.3745,7.10616 C8.2025,7.01016 7.9865,6.96216 7.7275,6.96216 C7.7035,6.96216 7.6805,6.96916 7.6555,6.97016 C7.6275,6.96916 7.6045,6.96216 7.5755,6.96216 C7.4755,6.96216 7.3785,6.97316 7.2825,6.99516 C7.1865,7.01716 7.0965,7.05016 7.0115,7.09616 C6.9255,7.14116 6.8485,7.19916 6.7765,7.26616 C6.7575,7.28516 6.7455,7.31116 6.7275,7.33016 L6.7595,6.95616 L6.6055,6.95616 L6.1525,6.95616 L6.0005,6.95616 L6.0025,9.99916 L6.1545,9.99916 L6.6075,9.99916 L6.7605,9.99916 C6.7605,9.99916 6.7545,8.35616 6.7835,8.19616 C6.8115,8.03516 6.8605,7.90016 6.9285,7.78816 C6.9965,7.67816 7.0865,7.59516 7.1985,7.53816 C7.2855,7.49516 7.3945,7.47316 7.5155,7.46316 C7.7125,7.47416 7.8655,7.53716 7.9635,7.66516 C8.0705,7.80616 8.1245,8.01816 8.1255,8.29916 L8.1295,9.99916 L8.2815,9.99916 L8.7215,9.99916 L8.8735,9.99916 L8.8705,8.62816 C8.8705,8.43816 8.8865,8.26916 8.9185,8.12216 C8.9505,7.97616 9.0015,7.85316 9.0715,7.75416 C9.1415,7.65616 9.2305,7.58116 9.3415,7.53116 C9.4255,7.49116 9.5275,7.47216 9.6405,7.46216 C9.8385,7.47416 9.9925,7.53716 10.0925,7.66516 C10.2005,7.80616 10.2545,8.01816 10.2555,8.29916 L10.2595,9.99916 L10.4115,9.99916 L10.8485,9.99916 L11.0005,9.99916 L10.9965,8.26716 Z"/>
    <path fill="#40B6E0" fill-opacity=".7" d="M1.10685771,2.02704609 L4.87122144,5.83829445 C4.32352931,6.58372098 4,7.50407833 4,8.5 C4,9.78641277 4.53978891,10.9467511 5.40522293,11.7668712 C4.25364069,11.4593458 3.12840058,10.7672621 2.14694343,9.77360609 C-0.115285146,7.48325942 -0.794628003,4.41808609 1.10685771,2.02704609 Z M9.65258628,2.17467275 C10.5508282,3.0840793 11.1995169,4.11564283 11.5361817,5.1786058 C10.7351413,4.44627521 9.66968722,4 8.5,4 C7.46970501,4 6.52028042,4.34624734 5.76174055,4.92872771 L2.00028628,1.12080609 C4.361972,-0.804313912 7.38951485,-0.117380579 9.65258628,2.17467275 Z"/>
  </g>
</svg>

<svg xmlns="http://www.w3.org/2000/svg" width="12" height="12" viewBox="0 0 12 12"><rect id="frame" width="12" height="12" fill="none"/><g fill="none" fill-rule="evenodd"><path fill="#F98B9E" fill-opacity=".6" d="M12 8.5A3.5 3.5 0 0 1 8.5 12 3.5 3.5 0 1 1 12 8.5"/><path fill="#231F20" fill-opacity=".7" d="M10.996 8.267c0-.455-.097-.786-.287-.994-.191-.207-.476-.31-.854-.31-.02 0-.04.005-.06.006-.031 0-.06-.007-.092-.007-.108 0-.214.012-.317.036-.104.024-.202.06-.296.11-.095.048-.18.11-.26.183-.05.047-.088.111-.13.17a.833.833 0 0 0-.325-.355 1.315 1.315 0 0 0-.647-.144c-.024 0-.047.007-.072.008-.028 0-.051-.008-.08-.008-.1 0-.197.011-.293.033a1.064 1.064 0 0 0-.506.271c-.02.02-.032.045-.05.064l.032-.374H6L6.003 10h.758s-.006-1.643.022-1.803c.028-.16.077-.296.145-.408a.669.669 0 0 1 .27-.25.89.89 0 0 1 .317-.075c.198.011.35.074.449.202.106.141.16.353.162.634L8.13 10h.743l-.002-1.37c0-.19.015-.36.047-.507.033-.146.084-.269.154-.368a.66.66 0 0 1 .27-.223.882.882 0 0 1 .298-.069c.198.012.352.075.452.203.108.141.162.353.163.634l.004 1.7h.742l-.005-1.732z"/><path fill="#40B6E0" fill-opacity=".7" d="M1.107 2.027L4.87 5.838A4.48 4.48 0 0 0 4 8.5c0 1.286.54 2.447 1.405 3.267-1.151-.308-2.277-1-3.258-1.993-2.262-2.29-2.942-5.356-1.04-7.747zm8.546.148c.898.91 1.547 1.94 1.883 3.004A4.484 4.484 0 0 0 8.5 4a4.48 4.48 0 0 0-2.738.929L2 1.12C4.362-.804 7.39-.117 9.653 2.175z"/></g></svg>
